X:247 
T:kermans polska
R:Polska
N:kanske den mst populra av alla polskor p Gotland,
S:upptecknad efter klockaren Laugren i Alva;
N:begagnades nstan alltid till brudpolska i sydligare delen af n.
B:Gotlandstoner, nr 247
D:Gunnfjauns Kapell, "Dans Lite"
Z:Erik Ronstrm 2002-10-22
O:Gotland, Alva
M:3/4
L:1/16
K:D
LD4 FEFG A2Bc|dcde fefg a3f|gagf efed cdcB|ABcd edcB AGFE:|
DFAF DFAF EGAG|DFAF DFAF EGAG|FAdc Begf e3d|cABc c4 d4|
|:eAcA e2cA EAcA|fAdA f2dA FAdA|eAcA e2cA EAcA|fAdA f2dA FAdA|
DFAF DFAF EGAG|DFAF DFAF EGAG|FAdc Begf e3d|cABc c4 d4:|
